icons/medicine-bottle-line.svg

<svg viewBox="0 0 24 24" fill="currentColor" xmlns="http://www.w3.org/2000/svg"><path d="M19 2V4H17V7C18.6569 7 20 8.34315 20 10V21C20 21.5523 19.5523 22 19 22H5C4.44772 22 4 21.5523 4 21V10C4 8.34315 5.34315 7 7 7V4H5V2H19ZM17 9H7C6.44772 9 6 9.44772 6 10V20H18V10C18 9.44772 17.5523 9 17 9ZM13 11V13H15V15H12.999L13 17H11L10.999 15H9V13H11V11H13ZM15 4H9V7H15V4Z"/></svg>

<svg xmlns="http://www.w3.org/2000/svg" viewBox="0 0 24 24">
    <g>
        <path fill="none" d="M0 0H24V24H0z"/>
        <path d="M19 2v2h-2v3c1.657 0 3 1.343 3 3v11c0 .552-.448 1-1 1H5c-.552 0-1-.448-1-1V10c0-1.657 1.343-3 3-3V4H5V2h14zm-2 7H7c-.552 0-1 .448-1 1v10h12V10c0-.552-.448-1-1-1zm-4 2v2h2v2h-2.001L13 17h-2l-.001-2H9v-2h2v-2h2zm2-7H9v3h6V4z"/>
    </g>
</svg>
